X: 40546
T: Tommy Peoples'
R: reel
M: 4/4
K: Gmajor
g2dg egde|g2bg eagf|g2dg egdB|1 cBAc BGGf:|2 cBAc BGGF||
g2dg egde|g2bg age2|g2dg egdB|cBAc BGGf|
g2dg egde|g2bg agef|gfga gedB|cBAc BGGf||

